static/logos/lever-glyph-color.svg

<svg width="50" height="50" viewBox="0 0 50 50" fill="none" xmlns="http://www.w3.org/2000/svg">
<g clip-path="url(#clip0_1_2185)">
<path d="M49.525 47.3687L40.1125 37.9547C39.8152 37.6632 39.4155 37.5 38.9993 37.5C38.5829 37.5 38.1832 37.6632 37.8859 37.9547L28.4734 47.3687C28.2489 47.5827 28.095 47.86 28.0319 48.1638C27.9688 48.4674 27.9998 48.783 28.1206 49.0687C28.2413 49.3544 28.4462 49.5966 28.708 49.7629C28.9698 49.9293 29.276 50.012 29.5859 50H48.4125C48.7206 50.0077 49.0239 49.9225 49.2829 49.7554C49.542 49.5883 49.7447 49.3471 49.8647 49.0632C49.9848 48.7793 50.0165 48.4658 49.9559 48.1636C49.8953 47.8615 49.7452 47.5845 49.525 47.3687Z" fill="#C3C6CC"/>
<path d="M49.8438 13.5562L46.8953 4.80314C46.7623 4.40728 46.5501 4.04262 46.2719 3.73126L0.359375 49.6422C0.628816 49.8833 0.980773 50.0114 1.34218 50H14.3828C14.7473 50.0017 15.1085 49.9316 15.4459 49.7935C15.7832 49.6555 16.0898 49.4522 16.3485 49.1953L49.2188 16.325C49.576 15.9711 49.8246 15.5224 49.9353 15.0319C50.0461 14.5413 50.0143 14.0294 49.8438 13.5562Z" fill="#E1E3E6"/>
<path d="M45.1976 3.10429L36.4445 0.157414C35.9714 -0.0131558 35.4594 -0.0449504 34.9689 0.0657823C34.4783 0.176515 34.0296 0.425159 33.6758 0.782413L0.803835 33.6526C0.286738 34.176 -0.00203538 34.8826 0.000709646 35.6184V48.6589C-0.0107688 49.0203 0.117366 49.3723 0.35852 49.6418L46.2711 3.73091C45.9592 3.45165 45.5941 3.23848 45.1976 3.10429Z" fill="#C3C6CC"/>
</g>
<defs>
<clipPath id="clip0_1_2185">
<rect width="50" height="50" fill="white"/>
</clipPath>
</defs>
</svg>

<svg xmlns="http://www.w3.org/2000/svg" width="64" height="64" fill="none" viewBox="0 0 50 50"><g clip-path="url(#a)"><path fill="#C3C6CC" d="m49.525 47.369-9.413-9.414a1.59 1.59 0 0 0-2.226 0l-9.413 9.414A1.527 1.527 0 0 0 29.586 50h18.827a1.535 1.535 0 0 0 1.112-2.631Z"/><path fill="#E1E3E6" d="m49.844 13.556-2.949-8.753a3.082 3.082 0 0 0-.623-1.072L.359 49.642c.27.241.622.37.983.358h13.04a2.772 2.772 0 0 0 1.967-.805l32.87-32.87a2.638 2.638 0 0 0 .625-2.769Z"/><path fill="#C3C6CC" d="M45.198 3.104 36.444.157a2.638 2.638 0 0 0-2.768.625L.804 33.652A2.782 2.782 0 0 0 0 35.619v13.04c-.012.362.116.714.358.984L46.27 3.73a3.098 3.098 0 0 0-1.073-.627Z"/></g><defs><clipPath id="a"><path fill="#fff" d="M0 0h50v50H0z"/></clipPath></defs></svg>
